X: 1
T: Honey Harbour Two-Step
C: Graham Townsend 1962
M: 2/4
L: 1/8
K: A
"E7"Ac \
| "A"e2 e3/f/ | ec AE | "A"C2 E3/F/ | EC A,C \
| "Bm"D2 B3/A/ | "E7"GE FG |1 "A"A2 "D"GF | "E7"E2 :|2 "A"A2- "D"A2- | "A"A2 |]
"E7"cd \
| "A"e2 ce | a2 e3/f/ | "Bm"ed dc | d2 Bc \
| "E7"d2 Bd | g2 f3/g/ | "A"fe "(E)"e^d | "A"e2 |]
"E7"cd \
| "A"e2 ce | "F#m"a2 e3/f/ | "Bm"ed dc | d2 Bc \
| "E7"d2 gf | e^d =dB | "A"A2- "D"A2- | "A"A2 |]
